svgs/solid/pie.svg

<svg xmlns="http://www.w3.org/2000/svg" viewBox="0 0 576 512"><!-- Font Awesome Pro 6.0.0-alpha2 by @fontawesome - https://fontawesome.com License - https://fontawesome.com/license (Commercial License) --><path d="M544 240C537.5 240 533.625 238.75 529.5 236.5C494.875 136.125 400.125 64 288 64S81 136.25 46.5 236.5C42.375 238.875 38.5 240 32 240C14.375 240 0 254.375 0 272S14.375 304 32 304C64 304 82 290.5 93.875 281.625C103 274.75 106.75 272 117.5 272C128.125 272 131.875 274.75 141 281.625C152.875 290.5 170.875 304 202.875 304S252.875 290.5 264.75 281.625C273.75 274.75 277.625 272 288.25 272S302.625 274.75 311.625 281.625C323.625 290.5 341.5 304 373.5 304S423.5 290.5 435.375 281.625C444.375 274.75 448.125 272 458.875 272C469.5 272 473.125 274.75 482.25 281.625C494 290.5 512 304 544 304C561.625 304 576 289.625 576 272S561.625 240 544 240ZM206.25 151.125L190.25 183.125C180.875 202.001 152.125 188 161.75 168.875L177.75 136.875C187.25 118.001 215.75 132.25 206.25 151.125ZM304 176C304 197.125 272 197.125 272 176V144C272 122.875 304 122.875 304 144V176ZM385.75 183.125L369.75 151.125C360.25 132.25 388.875 118.001 398.25 136.875L414.25 168.875C423.875 187.875 395.125 202.001 385.75 183.125ZM458.75 304C448.625 311 422.625 336 373.5 336C324.5 336 298.375 311 288.25 304C280.875 309 253 336 202.875 336C153.75 336 127.75 311 117.625 304H117.375C109 309.75 90.625 326.625 57.75 333.25L88.75 426.125C93.125 439.125 105.25 448 119.125 448H457C470.75 448 483 439.125 487.25 426.125L518.25 333.25C485.25 326.625 465.875 308.875 458.875 304H458.75Z"/></svg>

<svg xmlns="http://www.w3.org/2000/svg" viewBox="0 0 576 512"><!-- Font Awesome Pro 5.15.1 by @fontawesome - https://fontawesome.com License - https://fontawesome.com/license (Commercial License) --><path d="M458.78 304c-10.12 6.94-36.19 32-85.25 32s-75.15-25-85.26-32h-.08c-7.33 5-35.19 32-85.28 32-49.13 0-75.17-25-85.34-32h-.22c-8.34 5.7-26.69 22.63-59.6 29.2l31 92.88A32 32 0 0 0 119.07 448h337.87a32 32 0 0 0 30.36-21.88l31-92.88c-33.11-6.62-52.47-24.4-59.46-29.2zM544 240c-6.44 0-10.37-1.2-14.47-3.52C494.93 136.17 400.07 64 288 64S81 136.21 46.45 236.55c-4.07 2.28-8 3.45-14.45 3.45a32 32 0 0 0 0 64c32 0 50-13.47 61.92-22.39 9.08-6.8 12.83-9.61 23.53-9.61s14.47 2.81 23.55 9.61c11.91 8.92 29.89 22.39 61.91 22.39s50-13.48 61.88-22.41c9-6.78 12.8-9.59 23.45-9.59s14.39 2.81 23.44 9.59c11.89 8.92 29.86 22.41 61.86 22.41s49.95-13.48 61.84-22.41c9.05-6.78 12.8-9.59 23.44-9.59s14.34 2.81 23.38 9.58C494.06 290.52 512 304 544 304a32 32 0 0 0 0-64zm-337.69-88.84l-16 32c-9.44 18.83-38.17 4.79-28.62-14.31l16-32c9.53-18.85 38.09-4.63 28.62 14.31zM304 176c0 21.17-32 21.18-32 0v-32c0-21.17 32-21.18 32 0zm81.69 7.16l-16-32c-9.48-18.95 19.13-33.19 28.62-14.31l16 32c9.53 19.05-19.17 33.15-28.62 14.31z"/></svg>
